public/NextJS.svg

<svg width="50" height="50" viewBox="0 0 50 50" fill="none" xmlns="http://www.w3.org/2000/svg">
<path d="M23.3625 0.0127583C23.2542 0.0231731 22.9125 0.0585837 22.6042 0.0814964C15.5042 0.723053 8.85417 4.55364 4.6375 10.4422C2.30896 13.6744 0.79525 17.4209 0.225 21.3632C0.025 22.738 0 23.1421 0 25.0043C0 26.8665 0.025 27.2727 0.225 28.6453C1.58333 38.0333 8.26667 45.9194 17.3271 48.8418C18.95 49.3647 20.6604 49.7209 22.6042 49.9375C23.3625 50.0208 26.6375 50.0208 27.3958 49.9375C30.7521 49.5647 33.5979 48.7336 36.4021 47.3026C36.8333 47.0838 36.9167 47.0234 36.8583 46.9755C35.4867 45.1669 34.129 43.3477 32.7854 41.5181L28.7875 36.117L23.7792 28.7037C22.1127 26.2241 20.4307 23.755 18.7333 21.2966C18.7146 21.2903 18.6958 24.5835 18.6854 28.6078C18.6708 35.6483 18.6646 35.9316 18.5771 36.0983C18.4917 36.2927 18.3395 36.4501 18.1479 36.5419C17.9917 36.6211 17.8563 36.6357 17.1167 36.6357H16.2708L16.0458 36.494C15.9066 36.4061 15.7936 36.2823 15.7187 36.1357L15.6146 35.917L15.625 26.1187L15.6396 16.3162L15.7917 16.1246C15.8941 16.0048 16.0167 15.9039 16.1542 15.8267C16.3542 15.7288 16.4313 15.7205 17.2792 15.7205C18.275 15.7205 18.4417 15.758 18.7 16.0412C18.7729 16.1204 21.4854 20.2072 24.7312 25.1272L34.5937 40.0663L38.5521 46.0611L38.7542 45.9298C40.6592 44.6636 42.3862 43.1483 43.8896 41.4244C47.0399 37.8193 49.0834 33.3823 49.775 28.6453C49.975 27.2706 50 26.8665 50 25.0043C50 23.1421 49.975 22.738 49.775 21.3632C48.4167 11.9773 41.7333 4.08914 32.6729 1.16672C30.9796 0.628422 29.2359 0.263418 27.4688 0.0773304C26.9979 0.0273391 23.7687 -0.0268183 23.3646 0.0148412L23.3625 0.0127583ZM33.5979 15.1352C33.7141 15.1937 33.8175 15.2746 33.9023 15.3733C33.987 15.4719 34.0514 15.5864 34.0917 15.7101C34.1292 15.835 34.1396 18.5533 34.1292 24.6772L34.1146 33.4632L32.5667 31.0887L31.0125 28.7141V22.3277C31.0125 18.1972 31.0312 15.8767 31.0604 15.7643C31.0951 15.6341 31.1558 15.5124 31.2389 15.4064C31.322 15.3004 31.4257 15.2124 31.5438 15.1477C31.7458 15.0435 31.8187 15.0352 32.5854 15.0352C33.3083 15.0352 33.4354 15.0456 33.5979 15.1331V15.1352Z" fill="#1096E1"/>
</svg>

<svg xmlns="http://www.w3.org/2000/svg" width="50" height="50" fill="none" xmlns:v="https://vecta.io/nano"><path d="M23.363.013l-.758.069c-7.1.642-13.75 4.472-17.967 10.361C2.309 13.674.795 17.421.225 21.363.025 22.738 0 23.142 0 25.004s.025 2.268.225 3.641c1.358 9.388 8.042 17.274 17.102 20.197 1.623.523 3.333.879 5.277 1.096.758.083 4.033.083 4.792 0 3.356-.373 6.202-1.204 9.006-2.635.431-.219.515-.279.456-.327l-4.073-5.457-3.998-5.401-5.008-7.413-5.046-7.407c-.019-.006-.038 3.287-.048 7.311l-.108 7.491a.89.89 0 0 1-.429.444c-.156.079-.292.094-1.031.094h-.846l-.225-.142c-.139-.088-.252-.212-.327-.358l-.104-.219.01-9.798.015-9.803.152-.192a1.34 1.34 0 0 1 .362-.298c.2-.098.277-.106 1.125-.106.996 0 1.163.037 1.421.321.073.079 2.785 4.166 6.031 9.086l9.862 14.939 3.958 5.995.202-.131c1.905-1.266 3.632-2.782 5.135-4.505 3.15-3.605 5.194-8.042 5.885-12.779.2-1.375.225-1.779.225-3.641s-.025-2.266-.225-3.641c-1.358-9.386-8.042-17.274-17.102-20.196C30.98.628 29.236.263 27.469.077c-.471-.05-3.7-.104-4.104-.062l-.002-.002zm10.235 15.122c.116.059.22.139.304.238s.149.213.189.337.048 2.843.037 8.967l-.015 8.786-1.548-2.375-1.554-2.375v-6.386l.048-6.563c.035-.13.095-.252.178-.358s.187-.194.305-.259c.202-.104.275-.113 1.042-.113.723 0 .85.01 1.013.098v.002z" fill="#1096e1"/></svg>
